svgs/sharp-solid/mug-tea-saucer.svg

<svg xmlns="http://www.w3.org/2000/svg" viewBox="0 0 640 512"><!--! Font Awesome Pro 6.6.0 by @fontawesome - https://fontawesome.com License - https://fontawesome.com/license (Commercial License) Copyright 2024 Fonticons, Inc. --><path d="M208 96l0-64L96 32l0 352 384 0 0-96 32 0c70.7 0 128-57.3 128-128s-57.3-128-128-128l-32 0-32 0L240 32l0 64 48 48 0 112-128 0 0-112 48-48zm272 0l32 0c35.3 0 64 28.7 64 64s-28.7 64-64 64l-32 0 0-128zM32 416L0 416l0 64 32 0 512 0 32 0 0-64-32 0L32 416z"/></svg>

<svg xmlns="http://www.w3.org/2000/svg" viewBox="0 0 640 512"><!--! Font Awesome Pro 6.4.2 by @fontawesome - https://fontawesome.com License - https://fontawesome.com/license (Commercial License) Copyright 2023 Fonticons, Inc. --><path d="M208 96V32H96V384H480V288h32c70.7 0 128-57.3 128-128s-57.3-128-128-128H480 448 240V96l48 48V256H160V144l48-48zm272 0h32c35.3 0 64 28.7 64 64s-28.7 64-64 64H480V96zM32 416H0v64H32 544h32V416H544 32z"/></svg>
